X: 33189
T: Prohibition, The
R: reel
M: 4/4
K: Amajor
AB|cAAA f2ec|BEEE BcdB|cAAA f2ec|degb a2ed|
cAAA f2ec|BEEE BcdB|cBAA Acec|degb a2ed|
ceag fedc|Bfba gfed|ceag fec2|cBBA GBed|
ceag fedc|BBba gfef|eaae fefa|gegb afed||

